X:77
T:Reel 77
M:4/4
K:Dmaj
L:1/8
A|BAGF EGG2|E|DAAF GEEc|BAGF GABc|dBAG FDDA|BAGF GEEF|GEBA GEEA|BAGF GABc|dBAG FDD|c|d2fd adfd|afeg fBBc|d2fd adfd|fbag fddc|d2fd adfd| (3fga fd ecAF|DEFG Adag|faeg fdd|
